html/images/lang/en/labels/bio-austria.67x90.svg

<?xml version="1.0" encoding="UTF-8" standalone="no"?>
<svg
   xmlns:svg="http://www.w3.org/2000/svg"
   xmlns="http://www.w3.org/2000/svg"
   xmlns:xlink="http://www.w3.org/1999/xlink"
   id="svg2211"
   width="335"
   height="448"
   version="1.0">
  <defs
     id="defs2214">
    <linearGradient
       id="linearGradient6179">
      <stop
         style="stop-color:#238132;stop-opacity:1"
         offset="0"
         id="stop6181" />
      <stop
         style="stop-color:#41a23b;stop-opacity:1"
         offset="1"
         id="stop6183" />
    </linearGradient>
    <linearGradient
       id="linearGradient6168">
      <stop
         style="stop-color:#1a7c31;stop-opacity:1"
         offset="0"
         id="stop6170" />
      <stop
         style="stop-color:#42a33a;stop-opacity:1"
         offset="1"
         id="stop6172" />
    </linearGradient>
    <linearGradient
       id="linearGradient5188">
      <stop
         style="stop-color:#f4bc1d;stop-opacity:1"
         offset="0"
         id="stop5190" />
      <stop
         style="stop-color:#ec9d26;stop-opacity:1"
         offset="1"
         id="stop5192" />
    </linearGradient>
    <linearGradient
       xlink:href="#linearGradient5188"
       id="linearGradient5194"
       x1="26.7374"
       y1="327.97879"
       x2="23.172413"
       y2="7.1299734"
       gradientUnits="userSpaceOnUse"
       gradientTransform="matrix(0.9979062,0,0,1,0.5929205,0.5941647)" />
    <linearGradient
       xlink:href="#linearGradient6168"
       id="linearGradient6174"
       x1="245.38992"
       y1="449.18835"
       x2="193.6976"
       y2="358.34933"
       gradientUnits="userSpaceOnUse"
       gradientTransform="translate(-1.8912534,-1.18834)" />
    <linearGradient
       xlink:href="#linearGradient6179"
       id="linearGradient6185"
       x1="35.631775"
       y1="448.00171"
       x2="35.631775"
       y2="344.47678"
       gradientUnits="userSpaceOnUse" />
  </defs>
  <path
     style="fill:#ffffff;fill-opacity:1;fill-rule:evenodd;stroke:none;stroke-width:4;stroke-linecap:butt;stroke-linejoin:miter;stroke-miterlimit:4;stroke-dashoffset:0;stroke-opacity:1"
     d="M -27.331566,317.87799 C 93.877986,315.69938 215.08754,313.52077 336.29709,311.34216 C 336.54466,328.17683 336.79223,345.01149 337.03979,361.84616 C 251.58463,390.54833 166.12947,419.2505 80.674301,447.95267 C 75.336024,448.87434 71.101388,447.55061 68.744331,442.40686 C 36.719032,400.89724 4.6937332,359.38761 -27.331566,317.87799 z "
     id="rect4149" />
  <path
     style="fill:url(#linearGradient5194);fill-opacity:1;fill-rule:evenodd;stroke:none;stroke-width:4;stroke-linecap:butt;stroke-linejoin:miter;stroke-miterlimit:4;stroke-dashoffset:0;stroke-opacity:1"
     d="M 23.389888,0 L 312.20303,0 C 324.83255,0 335,10.18878 335,22.844799 L 335,332.46553 C 230.06677,336.03052 174.13646,370.61007 174.13646,370.61007 C 109.92287,326.04773 0,332.46553 0,332.46553 L 0.5929204,22.844799 C 0.5929204,10.18878 10.760368,0 23.389888,0 z "
     id="rect4215"
      />
  <path
     style="fill:url(#linearGradient6174);fill-opacity:1;fill-rule:evenodd;stroke:none;stroke-width:4;stroke-linecap:butt;stroke-linejoin:miter;stroke-miterlimit:4;stroke-dashoffset:0;stroke-opacity:1"
     d="M 335,347.85276 L 335,425.1552 C 335,437.81122 324.81122,448 312.1552,448 L 77.69625,448 C 102.03768,418.83698 203.82858,345.64253 335,347.85276 z "
     id="rect6165"
      />
  <path
     style="fill:url(#linearGradient6185);fill-opacity:1.0;fill-rule:evenodd;stroke:none;stroke-width:4;stroke-linecap:butt;stroke-linejoin:miter;stroke-miterlimit:4;stroke-dashoffset:0;stroke-opacity:1"
     d="M 162.53451,375.95757 C 104.90057,408.63661 77.713259,447.99588 77.713259,447.99588 C 77.713259,447.99588 22.8448,448 22.8448,448 C 10.18878,448 0,437.81122 0,425.1552 L 0,344.88193 C 56.46582,342.98165 118.64765,348.10063 162.53451,375.95757 z "
     id="rect6176"
     />
  <path
     style="fill:#1c9d29;fill-opacity:1;fill-rule:evenodd;stroke:none;stroke-width:4;stroke-linecap:butt;stroke-linejoin:miter;stroke-miterlimit:4;stroke-dasharray:none;stroke-dashoffset:0;stroke-opacity:1"
     id="path6187"
     d="M 627.43768 166.36604 A 126.55703 120.02122 0 1 1  374.32362,166.36604 A 126.55703 120.02122 0 1 1  627.43768 166.36604 z"
     transform="matrix(1.0114017,0,0,1.0664781,-339.09154,-0.1322832)" />
  <path
     style="fill:#ffffff;fill-opacity:1;fill-rule:evenodd;stroke:none;stroke-width:4;stroke-linecap:butt;stroke-linejoin:miter;stroke-miterlimit:4;stroke-dasharray:none;stroke-dashoffset:0;stroke-opacity:1"
     id="path6189"
     d="M 617.60244 169.65877 A 117.42849 120.36945 0 1 1  382.74546,169.65877 A 117.42849 120.36945 0 1 1  617.60244 169.65877 z"
     transform="matrix(0.9844745,-2.0415557e-2,1.9916748e-2,0.960421,-328.28755,24.606473)" />
  <path
     style="font-size:130.98475647px;font-style:normal;font-weight:bold;fill:#1c9d29;fill-opacity:1;stroke:none;stroke-width:1px;stroke-linecap:butt;stroke-linejoin:miter;stroke-opacity:1;font-family:DIN 1451 Mittelschrift"
     d="M 91.64419,195.02634 L 91.64419,101.81168 L 127.76899,101.81168 C 136.84808,101.81177 143.72138,104.14694 148.38889,108.81718 C 153.05627,113.48759 155.38999,119.49077 155.39006,126.82673 C 155.38999,130.66542 154.45224,134.35477 152.57681,137.89477 C 150.70123,141.43489 147.05679,144.42049 141.64346,146.85157 L 141.64346,147.10748 C 146.75841,148.30177 150.57336,150.99947 153.08831,155.20059 C 155.60312,159.40179 156.86056,163.86952 156.86063,168.6038 C 156.86056,176.66493 154.2924,183.08396 149.15615,187.8609 C 144.01975,192.63787 137.95634,195.02634 130.96587,195.02634 L 91.64419,195.02634 z M 127.51324,153.63314 L 105.77442,153.63314 L 105.77442,181.7191 L 127.51324,181.7191 C 132.75607,181.71912 136.60299,180.30096 139.05399,177.46463 C 141.50487,174.62833 142.73035,171.37616 142.73041,167.70811 C 142.73035,164.04012 141.50487,160.77729 139.05399,157.91961 C 136.60299,155.06201 132.75607,153.63319 127.51324,153.63314 L 127.51324,153.63314 z M 126.23448,114.35119 L 105.77442,114.35119 L 105.77442,141.09363 L 126.23448,141.09363 C 131.30682,141.09369 135.07915,139.79282 137.55145,137.19102 C 140.02365,134.58935 141.25978,131.43315 141.25984,127.72241 C 141.25978,124.13976 140.02365,121.01555 137.55145,118.34976 C 135.07915,115.68413 131.30682,114.35127 126.23448,114.35119 L 126.23448,114.35119 z M 167.31007,195.02634 L 167.31007,128.61809 L 180.67305,128.61809 L 180.67305,195.02634 L 167.31007,195.02634 z M 167.31007,115.1829 L 167.31007,101.81168 L 180.67305,101.81168 L 180.67305,115.1829 L 167.31007,115.1829 z M 193.44241,161.75824 C 193.4424,154.63549 193.99653,149.3254 195.10478,145.82794 C 196.21303,142.33058 198.04591,139.17437 200.60343,136.35933 C 202.43629,134.35477 204.96182,132.43546 208.18004,130.60138 C 211.39821,128.76744 215.60744,127.85043 220.80774,127.85036 C 225.92271,127.85043 230.09997,128.76744 233.33952,130.60138 C 236.57898,132.43546 239.11517,134.35477 240.94811,136.35933 C 243.50556,139.17437 245.33843,142.33058 246.44674,145.82794 C 247.55494,149.3254 248.10906,154.63549 248.10913,161.75824 C 248.10906,169.00901 247.55494,174.38308 246.44674,177.88048 C 245.33843,181.37791 243.50556,184.53411 240.94811,187.34909 C 239.11517,189.39637 236.57898,191.31568 233.33952,193.10703 C 230.09997,194.89839 225.92271,195.79407 220.80774,195.79407 C 215.60744,195.79407 211.39821,194.89839 208.18004,193.10703 C 204.96182,191.31568 202.43629,189.39637 200.60343,187.34909 C 198.04591,184.53411 196.21303,181.37791 195.10478,177.88048 C 193.99653,174.38308 193.4424,169.00901 193.44241,161.75824 L 193.44241,161.75824 z M 234.81009,161.8862 C 234.81004,157.06662 234.56495,153.67584 234.07481,151.71383 C 233.58457,149.75192 232.74272,147.87526 231.54927,146.08384 C 229.20484,142.84239 225.62433,141.22164 220.80774,141.22159 C 215.90582,141.22164 212.32531,142.84239 210.0662,146.08384 C 208.78743,147.87526 207.92427,149.75192 207.47673,151.71383 C 207.02915,153.67584 206.80537,157.02397 206.80538,161.75824 C 206.80537,166.62054 207.02915,170.0433 207.47673,172.02657 C 207.92427,174.00988 208.78743,175.87588 210.0662,177.62457 C 212.32531,180.86609 215.90582,182.48684 220.80774,182.48683 C 225.62433,182.48684 229.20484,180.86609 231.54927,177.62457 C 232.74272,175.87588 233.58457,174.02055 234.07481,172.05856 C 234.56495,170.09662 234.81004,166.70583 234.81009,161.8862 L 234.81009,161.8862 z "
     id="text6251" />
  <path
     style="font-size:39.81072235px;font-style:normal;font-weight:normal;fill:#cb0b18;fill-opacity:1;stroke:none;stroke-width:1px;stroke-linecap:butt;stroke-linejoin:miter;stroke-opacity:1;font-family:Bitstream Vera Sans"
     d="M 97.919352,211.4414 L 92.865258,226.66217 L 102.99188,226.66217 L 97.919352,211.4414 z M 95.816552,207.36477 L 100.04059,207.36477 L 110.53613,237.9497 L 106.66255,237.9497 L 104.15396,230.10374 L 91.740077,230.10374 L 89.231477,237.9497 L 85.302567,237.9497 L 95.816552,207.36477 z M 114.11457,207.36477 L 117.85903,207.36477 L 117.85903,225.94517 C 117.85902,229.22287 118.39394,231.58212 119.46379,233.02293 C 120.53363,234.46375 122.26751,235.18416 124.66545,235.18416 C 127.05106,235.18416 128.7788,234.46375 129.84866,233.02293 C 130.91848,231.58212 131.45341,229.22287 131.45343,225.94517 L 131.45343,207.36477 L 135.19788,207.36477 L 135.19788,226.45731 C 135.19786,230.44517 134.30939,233.45654 132.53249,235.49144 C 130.75555,237.52633 128.1332,238.54379 124.66545,238.54379 C 121.18537,238.54379 118.55688,237.52633 116.77996,235.49144 C 115.00303,233.45654 114.11457,230.44517 114.11457,226.45731 L 114.11457,207.36477 z M 158.716,208.36856 L 158.716,212.40422 C 157.30182,211.65311 155.96759,211.09317 154.71331,210.7244 C 153.459,210.35568 152.24773,210.17131 151.07953,210.17129 C 149.0505,210.17131 147.4857,210.60834 146.38513,211.48236 C 145.28453,212.35644 144.73424,213.59924 144.73424,215.21074 C 144.73424,216.5628 145.10007,217.58366 145.83176,218.27332 C 146.56343,218.96302 147.94992,219.51955 149.99124,219.9429 L 152.2416,220.45504 C 155.02071,221.04231 157.07125,222.07683 158.39321,223.5586 C 159.71511,225.0404 160.37608,227.02409 160.3761,229.50965 C 160.37608,232.47324 159.48148,234.71982 157.69227,236.2494 C 155.90303,237.77899 153.28069,238.54379 149.82523,238.54379 C 148.52173,238.54379 147.13524,238.3799 145.66575,238.05213 C 144.19624,237.72436 142.67448,237.23954 141.10047,236.59766 L 141.10047,232.33666 C 142.613,233.279 144.09479,233.98917 145.54585,234.46716 C 146.99689,234.94515 148.42335,235.18416 149.82523,235.18416 C 151.9526,235.18416 153.59426,234.71982 154.7502,233.79114 C 155.90611,232.86247 156.48407,231.53773 156.48409,229.81694 C 156.48407,228.31467 156.06904,227.14017 155.23901,226.29343 C 154.40894,225.4467 153.04704,224.81164 151.15331,224.38827 L 148.8845,223.89661 C 146.10536,223.28206 144.09479,222.31924 142.85279,221.00815 C 141.61079,219.69709 140.98979,217.87388 140.98979,215.5385 C 140.98979,212.83444 141.8475,210.70394 143.56295,209.14702 C 145.27838,207.59014 147.64249,206.81169 150.65528,206.81166 C 151.94645,206.81169 153.26224,206.94143 154.60264,207.20089 C 155.943,207.4604 157.31412,207.84962 158.716,208.36856 L 158.716,208.36856 z M 162.36822,207.36477 L 185.66501,207.36477 L 185.66501,210.84731 L 175.88884,210.84731 L 175.88884,237.9497 L 172.14438,237.9497 L 172.14438,210.84731 L 162.36822,210.84731 L 162.36822,207.36477 z M 202.33982,223.60981 C 203.13911,223.91029 203.91689,224.55216 204.67318,225.53546 C 205.42943,226.51877 206.18878,227.87082 206.95121,229.5916 L 210.73256,237.9497 L 206.72986,237.9497 L 203.20676,230.10374 C 202.29676,228.05519 201.41444,226.69631 200.55981,226.02711 C 199.70515,225.35793 198.54001,225.02333 197.06438,225.02332 L 193.00635,225.02332 L 193.00635,237.9497 L 189.28034,237.9497 L 189.28034,207.36477 L 197.69153,207.36477 C 200.83956,207.3648 203.1883,208.09544 204.73774,209.55672 C 206.28715,211.01806 207.06187,213.22367 207.06189,216.17355 C 207.06187,218.09922 206.65913,219.69709 205.8537,220.96718 C 205.04822,222.23729 203.87693,223.11817 202.33982,223.60981 L 202.33982,223.60981 z M 193.00635,210.76537 L 193.00635,221.62271 L 197.69153,221.62271 C 199.48689,221.62273 200.84263,221.16181 201.75878,220.23994 C 202.67489,219.31811 203.13296,217.96265 203.13298,216.17355 C 203.13296,214.38451 202.67489,213.03588 201.75878,212.12766 C 200.84263,211.21949 199.48689,210.7654 197.69153,210.76537 L 193.00635,210.76537 z M 215.54685,207.36477 L 219.27287,207.36477 L 219.27287,237.9497 L 215.54685,237.9497 L 215.54685,207.36477 z M 235.89233,211.4414 L 230.83824,226.66217 L 240.96487,226.66217 L 235.89233,211.4414 z M 233.78954,207.36477 L 238.01357,207.36477 L 248.50911,237.9497 L 244.63554,237.9497 L 242.12694,230.10374 L 229.71305,230.10374 L 227.20445,237.9497 L 223.27555,237.9497 L 233.78954,207.36477 z "
     id="text2203" />
</svg>

<svg xmlns="http://www.w3.org/2000/svg" xmlns:xlink="http://www.w3.org/1999/xlink" width="335" height="448" version="1"><defs><linearGradient id="c"><stop offset="0" stop-color="#238132"/><stop offset="1" stop-color="#41a23b"/></linearGradient><linearGradient id="b"><stop offset="0" stop-color="#1a7c31"/><stop offset="1" stop-color="#42a33a"/></linearGradient><linearGradient id="a"><stop offset="0" stop-color="#f4bc1d"/><stop offset="1" stop-color="#ec9d26"/></linearGradient><linearGradient xlink:href="#a" id="d" x1="26.737" y1="327.979" x2="23.172" y2="7.13" gradientUnits="userSpaceOnUse" gradientTransform="matrix(.9979 0 0 1 .593 .594)"/><linearGradient xlink:href="#b" id="e" x1="245.39" y1="449.188" x2="193.698" y2="358.349" gradientUnits="userSpaceOnUse" gradientTransform="translate(-1.891 -1.188)"/><linearGradient xlink:href="#c" id="f" x1="35.632" y1="448.002" x2="35.632" y2="344.477" gradientUnits="userSpaceOnUse"/></defs><path d="M-27.332 317.878l363.63-6.536.742 50.504-256.366 86.107c-5.338.921-9.573-.402-11.93-5.546l-96.076-124.529z" fill="#fff" fill-rule="evenodd"/><path d="M23.39 0h288.813C324.833 0 335 10.189 335 22.845v309.62c-104.933 3.566-160.864 38.145-160.864 38.145C109.923 326.048 0 332.466 0 332.466L.593 22.845C.593 10.189 10.76 0 23.39 0z" fill="url(#d)" fill-rule="evenodd"/><path d="M335 347.853v77.302A22.795 22.795 0 0 1 312.155 448H77.696C102.038 418.837 203.83 345.643 335 347.853z" fill="url(#e)" fill-rule="evenodd"/><path d="M162.535 375.958c-57.634 32.679-84.822 72.038-84.822 72.038L22.845 448A22.795 22.795 0 0 1 0 425.155v-80.273c56.466-1.9 118.648 3.219 162.535 31.076z" fill="url(#f)" fill-rule="evenodd"/><path d="M295.5 177.293a128 128 0 1 1-256 0 128 128 0 1 1 256 0z" fill="#1c9d29" fill-rule="evenodd"/><path d="M283.105 174.942a115.63 115.63-.72 1 1-231.21 4.794 115.63 115.63-.72 1 1 231.21-4.794z" fill="#fff" fill-rule="evenodd"/><path d="M91.644 195.026v-93.214h36.125c9.08 0 15.952 2.335 20.62 7.005 4.667 4.67 7.001 10.674 7.001 18.01 0 3.838-.938 7.528-2.813 11.068-1.876 3.54-5.52 6.525-10.934 8.957v.255c5.115 1.195 8.93 3.892 11.445 8.094 2.515 4.2 3.773 8.669 3.773 13.403 0 8.06-2.569 14.48-7.705 19.257-5.136 4.777-11.2 7.165-18.19 7.165H91.644zm35.87-41.393h-21.74v28.086h21.74c5.242 0 9.089-1.418 11.54-4.254 2.45-2.837 3.676-6.089 3.676-9.757 0-3.668-1.225-6.93-3.676-9.788-2.451-2.858-6.298-4.287-11.54-4.287zm-1.28-39.282h-20.46v26.743h20.46c5.073 0 8.845-1.301 11.317-3.903 2.473-2.602 3.709-5.758 3.709-9.469 0-3.582-1.236-6.706-3.709-9.372-2.472-2.666-6.244-3.999-11.317-3.999zm41.076 80.675v-66.408h13.363v66.408H167.31zm0-79.843v-13.371h13.363v13.37H167.31zm26.132 46.575c0-7.123.555-12.433 1.663-15.93s2.94-6.654 5.498-9.469c1.833-2.004 4.359-3.924 7.577-5.758s7.427-2.75 12.628-2.75c5.115 0 9.292.916 12.532 2.75 3.239 1.834 5.775 3.754 7.608 5.758 2.558 2.815 4.39 5.972 5.499 9.469 1.108 3.497 1.662 8.807 1.662 15.93 0 7.251-.554 12.625-1.662 16.122-1.109 3.498-2.941 6.654-5.499 9.47-1.833 2.046-4.369 3.966-7.608 5.757-3.24 1.791-7.417 2.687-12.532 2.687-5.2 0-9.41-.896-12.628-2.687s-5.744-3.71-7.577-5.758c-2.557-2.815-4.39-5.971-5.498-9.469-1.108-3.497-1.663-8.871-1.663-16.122zm41.368.128c0-4.82-.245-8.21-.735-10.172-.49-1.962-1.332-3.839-2.526-5.63-2.344-3.242-5.925-4.862-10.741-4.862-4.902 0-8.483 1.62-10.742 4.862-1.279 1.791-2.142 3.668-2.59 5.63-.447 1.962-.67 5.31-.67 10.044 0 4.863.223 8.285.67 10.269.448 1.983 1.311 3.849 2.59 5.598 2.26 3.241 5.84 4.862 10.742 4.862 4.816 0 8.397-1.62 10.741-4.862 1.194-1.75 2.036-3.604 2.526-5.566.49-1.962.735-5.353.735-10.173z" font-size="130.985" font-weight="700" fill="#1c9d29" font-family="DIN 1451 Mittelschrift"/><path d="M97.92 211.441l-5.055 15.221h10.127l-5.073-15.22zm-2.103-4.076h4.224l10.495 30.585h-3.873l-2.509-7.846H91.74l-2.509 7.846h-3.928l10.514-30.585zm18.298 0h3.744v18.58c0 3.278.535 5.637 1.605 7.078 1.07 1.44 2.804 2.161 5.201 2.161 2.386 0 4.114-.72 5.184-2.161 1.07-1.44 1.604-3.8 1.604-7.078v-18.58h3.745v19.092c0 3.988-.889 7-2.666 9.034-1.776 2.035-4.399 3.053-7.867 3.053-3.48 0-6.108-1.018-7.885-3.053-1.777-2.034-2.665-5.046-2.665-9.034v-19.092zm44.601 1.004v4.035c-1.414-.75-2.748-1.31-4.003-1.68-1.254-.368-2.465-.553-3.633-.553-2.03 0-3.594.437-4.695 1.311-1.1.874-1.65 2.117-1.65 3.729 0 1.352.365 2.373 1.097 3.062.731.69 2.118 1.247 4.16 1.67l2.25.512c2.779.587 4.83 1.622 6.151 3.104 1.322 1.481 1.983 3.465 1.983 5.95 0 2.964-.895 5.21-2.684 6.74-1.789 1.53-4.411 2.295-7.867 2.295-1.303 0-2.69-.164-4.16-.492a28.624 28.624 0 0 1-4.565-1.454v-4.261c1.513.942 2.995 1.652 4.446 2.13 1.45.478 2.877.717 4.28.717 2.127 0 3.768-.464 4.924-1.393 1.156-.929 1.734-2.253 1.734-3.974 0-1.502-.415-2.677-1.245-3.524-.83-.846-2.192-1.481-4.086-1.905l-2.268-.491c-2.78-.615-4.79-1.578-6.032-2.889-1.242-1.31-1.863-3.134-1.863-5.47 0-2.704.857-4.834 2.573-6.391 1.715-1.557 4.08-2.335 7.092-2.335 1.291 0 2.607.13 3.948.389 1.34.26 2.711.649 4.113 1.168zm3.652-1.004h23.297v3.482h-9.776v27.103h-3.745v-27.103h-9.776v-3.482zm39.972 16.245c.8.3 1.577.942 2.333 1.925.756.984 1.516 2.336 2.278 4.057l3.782 8.358h-4.003l-3.523-7.846c-.91-2.049-1.793-3.408-2.647-4.077-.855-.67-2.02-1.004-3.496-1.004h-4.058v12.927h-3.726v-30.585h8.412c3.148 0 5.496.73 7.046 2.192 1.55 1.461 2.324 3.667 2.324 6.617 0 1.925-.403 3.523-1.208 4.793-.806 1.27-1.977 2.151-3.514 2.643zm-9.334-12.845v10.858h4.686c1.795 0 3.15-.461 4.067-1.383.916-.922 1.374-2.277 1.374-4.066 0-1.79-.458-3.138-1.374-4.046-.916-.909-2.272-1.363-4.067-1.363h-4.686zm22.54-3.4h3.727v30.585h-3.726v-30.585zm20.346 4.076l-5.054 15.221h10.127l-5.073-15.22zm-2.102-4.076h4.224l10.495 30.585h-3.873l-2.51-7.846h-12.413l-2.509 7.846h-3.928l10.514-30.585z" font-size="39.811" font-weight="400" fill="#cb0b18" font-family="Bitstream Vera Sans"/></svg>
